public/assets/standards/sci/up.svg

<svg width="150" height="154" viewBox="0 0 150 154" fill="none" xmlns="http://www.w3.org/2000/svg">
<g clip-path="url(#clip0_1_2602)">
<path d="M147.92 74.5499C74.5301 98.9299 74.5501 147.92 74.5501 147.92C74.5501 147.92 74.5501 99.3099 1.18005 74.5499C1.18005 74.5499 1.22005 71.6399 1.31005 70.1999C3.56005 31.6999 35.4901 1.17993 74.5501 1.17993C113.75 1.17993 145.77 31.9199 147.82 70.6099C147.89 71.9099 147.92 74.5499 147.92 74.5499Z" stroke="#338A86" stroke-width="2.36" stroke-linecap="round" stroke-linejoin="round"/>
<path d="M74.55 40.05V153.38" stroke="#AECC53" stroke-width="2.93" stroke-miterlimit="10"/>
<path d="M63.52 40.6001C63.52 34.5101 68.46 29.5701 74.55 29.5701C80.64 29.5701 85.58 34.5101 85.58 40.6001C85.58 46.6901 80.64 51.6301 74.55 51.6301C68.46 51.6301 63.52 46.6901 63.52 40.6001Z" fill="#AECC53"/>
<path d="M110.68 61.0598C101.54 69.1498 93.6099 78.5898 87.2199 88.9898C81.0399 99.0398 76.4799 108.99 74.5599 120.74" stroke="#AECC53" stroke-width="1.5" stroke-miterlimit="10"/>
<path d="M106.82 56.9599C109.19 54.9399 112.75 55.2299 114.77 57.5999C116.79 59.9699 116.5 63.5299 114.13 65.5499C111.76 67.5699 108.2 67.2799 106.18 64.9099C104.16 62.5399 104.45 58.9799 106.81 56.9599H106.82Z" fill="#AECC53"/>
<path d="M38.4199 61.0601C47.5599 69.1501 55.4899 78.5901 61.8799 88.9901C68.0599 99.0401 72.6199 108.99 74.5399 120.74" stroke="#AECC53" stroke-width="1.5" stroke-miterlimit="10"/>
<path d="M34.97 65.54C32.6 63.52 32.32 59.96 34.33 57.59C36.35 55.22 39.91 54.94 42.28 56.95C44.65 58.97 44.93 62.53 42.92 64.9C40.9 67.27 37.34 67.55 34.97 65.54Z" fill="#AECC53"/>
</g>
<defs>
<clipPath id="clip0_1_2602">
<rect width="149.1" height="153.38" fill="white"/>
</clipPath>
</defs>
</svg>

<svg xmlns="http://www.w3.org/2000/svg" width="150" height="154" fill="none" viewBox="0 0 150 154"><g clip-path="url(#a)"><path stroke="#338a86" stroke-linecap="round" stroke-linejoin="round" stroke-width="2.36" d="M147.92 74.55c-73.39 24.38-73.37 73.37-73.37 73.37s0-48.61-73.37-73.37c0 0 .04-2.91.13-4.35C3.56 31.7 35.49 1.18 74.55 1.18c39.2 0 71.22 30.74 73.27 69.43.07 1.3.1 3.94.1 3.94"/><path stroke="#aecc53" stroke-miterlimit="10" stroke-width="2.93" d="M74.55 40.05v113.33"/><path fill="#aecc53" d="M63.52 40.6c0-6.09 4.94-11.03 11.03-11.03s11.03 4.94 11.03 11.03-4.94 11.03-11.03 11.03-11.03-4.94-11.03-11.03"/><path stroke="#aecc53" stroke-miterlimit="10" stroke-width="1.5" d="M110.68 61.06a124.2 124.2 0 0 0-23.46 27.93c-6.18 10.05-10.74 20-12.66 31.75"/><path fill="#aecc53" d="M106.82 56.96a5.64 5.64 0 1 1-.64 7.95 5.65 5.65 0 0 1 .63-7.95z"/><path stroke="#aecc53" stroke-miterlimit="10" stroke-width="1.5" d="M38.42 61.06c9.14 8.09 17.07 17.53 23.46 27.93 6.18 10.05 10.74 20 12.66 31.75"/><path fill="#aecc53" d="M34.97 65.54a5.65 5.65 0 0 1-.64-7.95 5.65 5.65 0 0 1 7.95-.64 5.65 5.65 0 0 1 .64 7.95 5.65 5.65 0 0 1-7.95.64"/></g><defs><clipPath id="a"><path fill="#fff" d="M0 0h149.1v153.38H0z"/></clipPath></defs></svg>
